X:17
T:The Flowers of Munster
R:reel
D:Snug in the Blanket,P.O'Brien,J.Gans,D.Sproule
S:Paddy Taylor, flute Co.Limerick
Z:Paul Stewart Cranford (P.S.C.), <http://www.cranfordpub.com>
L:1/8
Q:333
M:C|
K:Amix
cAeA cAeA|cAeA dBGA|Be ~e2 dfed|BGGA BcdB:|
||cA ~A2 agfa|gfed e/f/g aA|ABcd efge|dGGA BcdB|
cA ~A2 agfa|gfed efge|~f2 fd e2 ed|BGGA BcdB|]
